X:1
T:I Will Not Forget Thee
T:I Will Not Forget Thee
T:Charles Hutchinson Gabriel
T:Charles Hutchinson Gabriel, 1889
T:Public Domain Courtesy of the Cyber Hymnal™
T:Public Domain Courtesy of the Cyber Hymnal™
C:Charles Hutchinson Gabriel
Z:Public Domain
Z:Courtesy of the Cyber Hymnal™
%%score ( 1 2 ) ( 3 4 )
L:1/8
Q:1/4=103
M:4/4
K:Ab
V:1 treble 
V:2 treble 
V:3 bass 
V:4 bass 
V:1
 [CE]2 [CA][DB] [Ec]2 [Ec]2 | [Ec][Fd][DB][Ec] [CA]2 [CE]2 | [EA][EB][Ec][Ed] [Ee]2 [Ec]2 | %3
w: 1.~Sweet is the prom- ise|“I will not for- get thee,”|No- thing can mo- lest or|
w: 2.~Trust- ing the prom- ise|“I will not for- get thee,”|On- ward I will go with|
w: 3.~When at the gold- en|por- tals I am stand- ing,|All my trib- u- la- tions,|
 [Ed][Ec][EB][=DA] B4 | [CE]2 [CA][DB] [Ec]2 [Ec]2 | [Ec][Fd][DB][Ec] [CA]2 [CE]2 | %6
w: turn my soul a- way;|E’en though the night be|dark with- in the val- ley,|
w: songs of joy and love,|Though earth de- spise me,|Though my friends for- sake me,|
w: all my sor- rows past;|How sweet to hear the|bless- èd proc- la- ma- tion,|
 [DF][EG][FA][Fd] [Ec]2 [EA]2 | [EG][EA][EB][Ec] [EA]4 ||"^Refrain" [Ae]4- [Ae]>[Ed] [Ec][DB] | %9
w: Just be- yond is shin- ing|an e- tern- al day.|I * will not for-|
w: I shall be re- mem- bered|in my home a- bove.||
w: “En- ter, faith- ful serv- ant,|wel- come home at last.”||
 ([CA][DB])[Ec][CA] [DF]2 [CE]2 | [B,E][EG][EG][GB] (Bd) d2 | [CE][EA][EA][Ac] (ce) [Ae]2 | %12
w: get * thee or leave thee,|In My hands I’ll hold * thee,|In My arms I’ll fold * thee,|
w: |||
w: |||
 [Ae]4- [Ae]>[Ed] [Ec][DB] | ([CA][DB])[Ec][_Ge] [Ge]2 [Fd]2 | [FA][=EG][FA][Fd] [_Ec]2 [EA]2 | %15
w: I * will not for-|get * thee or leave thee;|I am thy Re- deem- er,|
w: |||
w: |||
 [EG][EA][EB][Ec] [EA]4 |] %16
w: I will care for thee.|
w: |
w: |
V:2
 x8 | x8 | x8 | x4 (E2 _D2) | x8 | x8 | x8 | x8 || x8 | x8 | x4 G2 (GE) | x4 A2 x2 | x8 | x8 | x8 | %15
 x8 |] %16
V:3
 [A,,A,]2 [A,,A,][A,,A,] [A,,A,]2 [A,,A,]2 | [E,A,][E,A,][E,G,][E,G,] [A,,A,]2 [A,,A,]2 | %2
w: ~ ~ ~ ~ ~|~ ~ ~ ~ ~ ~|
 [C,A,][E,G,]A,[A,B,] [A,C]2 A,2 | [A,B,]A,[G,B,][F,B,] [E,G,]4 | %4
w: ~ ~ ~ ~ ~ ~|~ ~ ~ ~ ~|
 [A,,A,]2 [A,,A,][A,,A,] [A,,A,]2 [A,,A,]2 | [E,A,][E,A,][E,G,][E,G,] [A,,A,]2 [A,,A,]2 | %6
w: ~ ~ ~ ~ ~|~ ~ ~ ~ ~ ~|
 [D,A,][D,A,][D,A,][D,A,] [E,B,]2 [E,C]2 | [E,B,][E,C][E,D][E,E] [A,,C]4 || %8
w: ~ ~ ~ ~ ~ ~|~ ~ ~ ~ ~|
 [A,C][B,D][CE][B,D] (C>B,) A,2 | [A,,A,][A,,A,][A,,A,][A,,A,] [A,,A,]2 [A,,A,]2 | %10
w: I will not for- get * thee;|I will nev- er leave thee,|
 [E,G,][E,B,][D,B,][E,D] (DB,) (B,G,) | A,[A,C][A,C][A,E] (EC) [A,C]2 | %12
w: ~ ~ ~ ~ ~ * ~ *|~ ~ ~ ~ ~ * ~|
 [A,C][B,D][CE][B,D] (C>B,) A,A, | [A,,A,]2 [A,,A,][C,A,] [D,A,]2 [D,A,]2 | %14
w: I will not for- get * thee, for-|get * * * *|
 [D,A,][D,A,][D,A,][D,A,] [E,A,]2 [E,C]2 | [E,B,][E,C][E,D][E,E] [A,,C]4 |] %16
w: ||
V:4
 x8 | x8 | x2 A, x2 A,2 x | x A, x6 | x8 | x8 | x8 | x8 || x4 A,2 A,2 | x8 | x4 E,2 E,2 | %11
 A, x2 A,2 x3 | x4 A,2 A,A, | x8 | x8 | x8 |] %16

